openframe-frontend-core/src/components/icons-v2/brand-logos/adobe-ps.svg

<svg width="24" height="24" viewBox="0 0 24 24" fill="none" xmlns="http://www.w3.org/2000/svg">
<path d="M19.875 6C19.875 4.96447 19.0355 4.125 18 4.125H6C4.96447 4.125 4.125 4.96447 4.125 6V18C4.125 19.0355 4.96447 19.875 6 19.875H18C19.0355 19.875 19.875 19.0355 19.875 18V6ZM22.125 18C22.125 20.2782 20.2782 22.125 18 22.125H6C3.72183 22.125 1.875 20.2782 1.875 18V6C1.875 3.72183 3.72183 1.875 6 1.875H18C20.2782 1.875 22.125 3.72183 22.125 6V18Z" fill="#888888"/>
<path d="M10.375 10.25C10.375 9.62868 9.87132 9.125 9.25 9.125H8.125V11.375H9.25C9.87132 11.375 10.375 10.8713 10.375 10.25ZM16 9.875C16.6911 9.875 17.3892 10.1486 17.8633 10.4565C18.384 10.795 18.5311 11.4913 18.1929 12.0122C17.8544 12.5333 17.1583 12.6817 16.6372 12.3433C16.4332 12.2108 16.1554 12.125 16 12.125C15.8676 12.125 15.7741 12.15 15.7114 12.1748C15.8072 12.2304 15.9665 12.2982 16.2065 12.3433L16.6226 12.4429C17.0362 12.5661 17.441 12.7614 17.7827 13.0464C18.2565 13.4416 18.625 14.0333 18.625 14.7822C18.6249 15.5605 18.2277 16.1752 17.7197 16.562C17.2261 16.9379 16.6056 17.1245 16 17.1245C15.5818 17.1245 15.1764 17.0261 14.8398 16.896C14.5913 16.7999 14.3363 16.6702 14.1104 16.5078L13.895 16.3335L13.813 16.2529C13.4313 15.8296 13.4254 15.1774 13.8159 14.7456C14.2069 14.3138 14.8567 14.2552 15.3159 14.5933L15.4053 14.6665L15.4243 14.6812C15.4375 14.6906 15.4555 14.7029 15.4785 14.7163C15.5253 14.7436 15.5844 14.7725 15.6514 14.7983C15.7939 14.8534 15.9211 14.8745 16 14.8745C16.1541 14.8745 16.277 14.8244 16.3442 14.7778L16.3413 14.7749C16.2556 14.7034 16.0743 14.6081 15.792 14.5552C15.2657 14.4565 14.7076 14.2595 14.251 13.8989C13.7668 13.5164 13.405 12.947 13.3765 12.2188L13.375 12.1748C13.3757 10.6939 14.7269 9.87514 16 9.875ZM12.625 10.25C12.625 12.114 11.114 13.625 9.25 13.625H8.125V15.9995C8.125 16.6208 7.62132 17.1245 7 17.1245C6.37868 17.1245 5.875 16.6208 5.875 15.9995V8.21387C5.87523 7.47453 6.47453 6.87523 7.21387 6.875H9.25C11.114 6.875 12.625 8.38604 12.625 10.25Z" fill="#888888"/>
</svg>

<svg xmlns="http://www.w3.org/2000/svg" width="24" height="24" fill="none" viewBox="0 0 24 24">
  <path fill="#888" d="M19.875 6c0-1.036-.84-1.875-1.875-1.875H6c-1.036 0-1.875.84-1.875 1.875v12c0 1.035.84 1.875 1.875 1.875h12c1.035 0 1.875-.84 1.875-1.875V6Zm2.25 12A4.125 4.125 0 0 1 18 22.125H6A4.125 4.125 0 0 1 1.875 18V6A4.125 4.125 0 0 1 6 1.875h12A4.125 4.125 0 0 1 22.125 6v12Z"/>
  <path fill="#888" d="M10.375 10.25c0-.621-.504-1.125-1.125-1.125H8.125v2.25H9.25c.621 0 1.125-.504 1.125-1.125ZM16 9.875c.691 0 1.39.274 1.863.582a1.125 1.125 0 0 1-1.226 1.886c-.204-.132-.482-.218-.637-.218a.774.774 0 0 0-.289.05c.096.055.255.123.495.168l.417.1c.413.123.818.318 1.16.603.473.396.842.987.842 1.736 0 .778-.397 1.393-.905 1.78a2.857 2.857 0 0 1-1.72.563c-.418 0-.824-.099-1.16-.229a3.304 3.304 0 0 1-.73-.388l-.215-.174-.082-.081a1.126 1.126 0 0 1 1.503-1.66l.09.073.018.015a1.215 1.215 0 0 0 .576.193c.154 0 .277-.05.344-.096l-.003-.003c-.085-.072-.267-.167-.549-.22-.526-.098-1.084-.296-1.541-.656-.484-.383-.846-.952-.874-1.68l-.002-.044c0-1.481 1.352-2.3 2.625-2.3Zm-3.375.375a3.375 3.375 0 0 1-3.375 3.375H8.125v2.374a1.125 1.125 0 0 1-2.25 0V8.214c0-.74.6-1.339 1.339-1.339H9.25a3.375 3.375 0 0 1 3.375 3.375Z"/>
</svg>
